Obsidian-SemiLight/actions/24s/im-google-talk.svg

<svg viewBox="0 0 24 24" xmlns="http://www.w3.org/2000/svg"><path d="m12 4c-4.4181661 0-8.000001 2.6864-8 6 0 3.2629 3.4761023 5.911687 7.800781 5.992188v4.007812c8.216421-4.7437 8.199219-7.7342 8.199219-10 0-3.3136-3.581835-6-8-6zm-3.7402344 3.0644531h3.0820314v3.0839849h-.009766c.0065.073.009766.146403.009766.220703 0 1.2634-.966715 2.298856-2.201172 2.410156v-.892578c.745998-.1077 1.320312-.741778 1.320313-1.517578 0-.075-.009102-.148503-.019532-.220703h-2.1816404zm4.3984374 0h3.082031v3.0839849h-.009765c.0065.073.009765.146403.009765.220703 0 1.2634-.966713 2.298856-2.201172 2.410156v-.892578c.745999-.1077 1.320313-.741778 1.320313-1.517578 0-.075-.007098-.148503-.017578-.220703h-2.183594z" fill="#4d4d4d"/></svg>

<svg xmlns="http://www.w3.org/2000/svg" viewBox="0 0 24 24">
  <defs id="defs3051">
    <style type="text/css" id="current-color-scheme">
      .ColorScheme-Text {
        color:#4d4d4d;
      }
      </style>
  </defs>
 <path style="fill:currentColor;fill-opacity:1;stroke:none" 
     d="M 12 4 C 7.5818339 4 3.999999 6.6864 4 10 C 4 13.2629 7.4761023 15.911687 11.800781 15.992188 L 11.800781 20 C 20.017202 15.2563 20 12.2658 20 10 C 20 6.6864 16.418165 4 12 4 z M 8.2597656 7.0644531 L 11.341797 7.0644531 L 11.341797 10.148438 L 11.332031 10.148438 C 11.338531 10.221438 11.341797 10.294841 11.341797 10.369141 C 11.341797 11.632541 10.375082 12.667997 9.140625 12.779297 L 9.140625 11.886719 C 9.886623 11.779019 10.460937 11.144941 10.460938 10.369141 C 10.460938 10.294141 10.451836 10.220638 10.441406 10.148438 L 8.2597656 10.148438 L 8.2597656 7.0644531 z M 12.658203 7.0644531 L 15.740234 7.0644531 L 15.740234 10.148438 L 15.730469 10.148438 C 15.736969 10.221438 15.740234 10.294841 15.740234 10.369141 C 15.740234 11.632541 14.773521 12.667997 13.539062 12.779297 L 13.539062 11.886719 C 14.285061 11.779019 14.859375 11.144941 14.859375 10.369141 C 14.859375 10.294141 14.852277 10.220638 14.841797 10.148438 L 12.658203 10.148438 L 12.658203 7.0644531 z "
     class="ColorScheme-Text"
     />
</svg>
